X:1
T:Title
L:1/8
Q:1/4=100
M:6/8
K:G
V:1 treble nm="Church Organ, Staff"
V:1
 B E2 E G2 | A B2 c B2- | BBE- E/ z/ EG- | GAB- B/ z/ cd- | dcB- B/ z/ AG- | GAB- B/ z/ GE- | %6
w: By~H.~Heale * * *||||||
 EDE- E2 E- | E2 F- F3/2 z/ z | z FB- B/ z/ ^cd- | d^cB- B/ z/ _B=B- | BAd- d/ z/ ef- | %11
w: |||||
 fed- d/ z/ ^cd- | dcB- B/ z/ dc- | cBA- A/ z/ GF- | F2 F E2 E | G2 A B3 | d3 B2 A | G2 F E3 | %18
w: |||||||
 .E3 z3 |] %19
w: |

